icon-themes/sifr_svg/cmd/sc_flowchartshapes.flowchart-merge.svg

<svg viewBox="0 0 16 16" xmlns="http://www.w3.org/2000/svg"><g fill="#555753"><path d="m8 12.7 5.3-10.7h-10.6z" opacity=".35"/><path d="m1.0878906 1 6.9121094 13.953125.8964844-1.808594 6.0156246-12.144531zm3.2226563 2h7.3789061l-3.689453 7.447266z"/></g></svg>

<svg xmlns="http://www.w3.org/2000/svg" viewBox="0 0 16 16">
  <path
     style="opacity:0.35;fill:#555753"
     d="M 8,12.7 13.3,2 H 2.7 Z"
     />
  <path
     style="fill:#555753"
     d="M 1.0878906,1 8,14.953125 8.8964844,13.144531 14.912109,1 Z M 4.3105469,3 H 11.689453 L 8,10.447266 Z"
     />
</svg>
